svgs/regular/grill-fire.svg

<svg xmlns="http://www.w3.org/2000/svg" viewBox="0 0 576 512"><!--! Font Awesome Pro 6.3.0 by @fontawesome - https://fontawesome.com License - https://fontawesome.com/license (Commercial License) Copyright 2023 Fonticons, Inc. --><path d="M48 80V96c0 97.2 78.8 176 176 176c7.3 0 14.5-.4 21.6-1.3c-8 16.2-14.3 32.8-18.1 49.3c-1.2 0-2.4 0-3.6 0c-16.9 0-33.4-1.9-49.3-5.4L151.8 368h73c1.5 16.6 5.2 32.7 10.7 48H160c0 35.3-28.7 64-64 64s-64-28.7-64-64s28.7-64 64-64c3.4 0 6.8 .3 10.1 .8L129.2 299C52.9 263.3 0 185.8 0 96V72C0 49.9 17.9 32 40 32H408c22.1 0 40 17.9 40 40V96c0 24.1-3.8 47.3-10.9 69.1c-8.5-8.6-17.2-17-26.2-25.1c-4.3-3.9-9.3-6.9-14.5-8.9C398.8 119.8 400 108 400 96V80H48zm72 336a24 24 0 1 0 -48 0 24 24 0 1 0 48 0zM389.5 163.8c19.7 17.8 38.2 37 55.5 57.7c7.9-9.9 16.8-20.7 26.5-29.5c5.6-5.1 14.4-5.1 20 0c24.7 22.7 45.6 52.7 60.4 81.1c14.5 28 24.2 58.8 24.2 79C576 440 504.7 512 416 512c-89.7 0-160-72.1-160-159.8c0-26.4 12.7-60.7 32.4-92.6c20-32.4 48.1-66.1 81.4-95.8c2.8-2.5 6.4-3.8 10-3.7c3.5 0 7 1.3 9.8 3.8zM466 433c30-21 38-63 20-96c-2-4-4-8-7-12l-36 42s-58-74-62-79c-30 37-45 58-45 82c0 49 36 78 81 78c18 0 34-5 49-15z"/></svg>

<svg xmlns="http://www.w3.org/2000/svg" viewBox="0 0 576 512"><!--! Font Awesome Pro 6.2.0 by @fontawesome - https://fontawesome.com License - https://fontawesome.com/license (Commercial License) Copyright 2022 Fonticons, Inc. --><path d="M48 80V96C48 193.2 126.8 272 224 272C231.3 272 238.5 271.6 245.6 270.7C237.7 286.8 231.3 303.5 227.6 319.1C226.4 319.1 225.2 320 224 320C207.1 320 190.6 318.1 174.7 314.6L151.8 368H224.8C226.4 384.6 229.1 400.7 235.5 416H160C160 451.3 131.3 480 96 480C60.65 480 32 451.3 32 416C32 380.7 60.65 352 96 352C99.44 352 102.8 352.3 106.1 352.8L129.2 298.1C52.86 263.3 0 185.8 0 96V72C0 49.91 17.91 32 40 32H408C430.1 32 448 49.91 448 72V96C448 120.1 444.2 143.3 437.1 165.1C428.7 156.4 419.9 148.1 410.1 139.1C406.6 136.1 401.7 133.1 396.5 131.1C398.8 119.8 400 108 400 96V80L48 80zM96 392C82.75 392 72 402.7 72 416C72 429.3 82.75 440 96 440C109.3 440 120 429.3 120 416C120 402.7 109.3 392 96 392zM445 221.5C452.9 211.6 461.8 200.8 471.5 191.1C477.1 186.9 485.9 186.9 491.5 192C516.2 214.7 537.1 244.7 551.8 273.2C566.4 301.2 576 329.9 576 350.1C576 437.9 504.7 512 416 512C326.3 512 256 437.8 256 350.1C256 323.7 268.7 291.5 288.4 259.5C308.4 227.2 336.5 193.4 369.8 163.7C375.4 158.7 383.1 158.8 389.5 163.8C409.3 181.6 427.8 200.7 445 221.5V221.5zM486 337C484 333 482 329 479 325L443 367C443 367 385 293 381 288C351 325 336 346 336 370C336 419 372 448 417 448C435 448 451 443 466 433C496 412 504 370 486 337z"/></svg>
